X:1
T:Gott Sei Gelobet
T:Gott Sei Gelobet
T:German Melody, circa 1400
T:Public Domain Courtesy of the Cyber Hymnal™
C:German Melody, circa 1400
Z:Public Domain
Z:Courtesy of the Cyber Hymnal™
%%score ( 1 2 ) ( 3 4 )
L:1/8
Q:1/4=105
M:4/4
K:C
V:1 treble 
V:2 treble 
V:3 bass 
V:4 bass 
V:1
 [EG]2 [EG][EG] [FA]2 [EG]2 | [Ec][Gd][Ec][DB] [DA]2 [B,G]2 | [DA]2 [Cc]2 [DG]2 [CE]2 | %3
 [CF]2 [CE]2 D2 [C^F]2 | [DG]4- [DG] | [EG]2 [EG][EG] [FA]2 [EG]2 | [Ec][Gd][Ec][DB] [DA]2 [B,G]2 | %7
 [DA]2 [Cc]2 [DG]2 [CE]2 | [CF]2 [CE]2 D2 [C^F]2 | [DG]4- [DG] | [EG]2 [EG][DG] (AG) [D^F]2 | %11
 [DG]6 | [EG]2 [EG]2 [^FA]2 [GB]2 | [Gc]2 [EG][EG] [FA]2 [EG]2 | [GB]2 [Gc]2 [Fd]2 [Gd]2 | %15
 (cB) [FA]2 [DG]2 ([EG][DF]) | [B,D]4- [B,D] | [CE]2 [CF]2 [DG]4 | [CE]2 [CF]2 [DG]4 | %19
 [B,D]2 [DF]2 [CE]2 [B,D]2 | [CE]2 [B,D]2 C4 | [EG]2 [EG][DG] (AG) [D^F]2 | [DG]8 |] %23
V:2
 x8 | x8 | x8 | x8 | x5 | x8 | x8 | x8 | x8 | x5 | x4 E2 x2 | x6 | x8 | x8 | x8 | G2 x6 | x5 | x8 | %18
 x8 | x8 | x8 | x4 E2 x2 | x8 |] %23
V:3
 [C,C]2 [C,C][C,C] [F,C]2 [C,C]2 | [C,G,][B,,G,][C,G,][G,,G,] [D,^F,]2 [G,,G,]2 | %2
 [D,F,]2 [A,,E,]2 [B,,G,]2 [C,G,]2 | [F,,A,]2 [C,G,]2 [B,,G,]2 [D,A,]2 | [G,,B,]4- [G,,B,] | %5
 [C,C]2 [C,C][C,C] [F,C]2 [C,C]2 | [C,G,][B,,G,][C,G,][G,,G,] [D,^F,]2 [G,,G,]2 | %7
 [D,F,]2 [A,,E,]2 [B,,G,]2 [C,G,]2 | [F,,A,]2 [C,G,]2 [B,,G,]2 [D,A,]2 | [G,,B,]4- [G,,B,] | %10
 [C,C]2 [C,C][B,,G,] (CB,) A,2 | [G,,B,]6 | [C,C]2 [E,B,]2 [A,C]2 [G,D]2 | %13
 [C,E]2 [C,C][C,C] [F,C]2 [C,C]2 | [G,D]2 [E,C]2 [D,A,]2 [G,B,]2 | %15
 [E,C]2 [F,C]2 [G,B,]2 ([C,C][D,A,]) | [G,,G,]4- [G,,G,] | [C,G,]2 [A,,A,]2 [G,,B,]4 | %18
 [C,G,]2 [A,,A,]2 [G,,B,]4 | G,2 [D,A,]2 [E,G,]2 G,2 | [C,G,]2 [G,,G,]2 [C,E,]4 | %21
 [C,C]2 [C,C][B,,G,] (CB,) A,2 | [G,,B,]8 |] %23
V:4
 x8 | x8 | x8 | x8 | x5 | x8 | x8 | x8 | x8 | x5 | x4 A,,2 D,2 | x6 | x8 | x8 | x8 | x8 | x5 | x8 | %18
 x8 | x8 | x8 | x4 A,,2 D,2 | x8 |] %23

